X: 175
T:Se'i Yona
C:Yemenite Folk
O:Israeli
I:choreographer, Moshiko
F: http://www.youtube.com/watch?v=4OaFPI6RnjQ
L:1/8
M:4/4
Q:1/4=180
K:Am
%%MIDI gchord zzczzzcz
|:"Am"AB c2 d2 e2    |cded dcBA      |AB c2 dcBA     | c2 B2 A4  :|\
|:"Am"ABcd "G".B2 .B2| "Am"ABcd "G"B4| "Am"AB c2 dcBA| c2 B2 A4  :|



